; generated by PrusaSlicer 2.5.0+MacOS-x64 on 2022-10-05 at 14:14:56 UTC


;
;

;
;
; 

; external perimeters extrusion width = 0.45mm
; perimeters extrusion width = 0.45mm
; infill extrusion width = 0.45mm
; solid infill extrusion width = 0.45mm
; top infill extrusion width = 0.40mm
; first layer extrusion width = 0.42mm

M73 P0 R35
M201 X2500 Y2500 Z400 E5000 ; sets maximum accelerations, mm/sec^2
M203 X180 Y180 Z12 E80 ; sets maximum feedrates, mm / sec
M204 P1250 R1250 T2500 ; sets acceleration (P, T) and retract acceleration (R), mm/sec^2
M205 X8.00 Y8.00 Z2.00 E10.00 ; sets the jerk limits, mm/sec
M205 S0 T0 ; sets the minimum extruding and travel feed rate, mm/sec
M107
;TYPE:Custom
M862.3 P "MINI" ; printer model check
G90 ; use absolute coordinates
M83 ; extruder relative mode
M104 S170 ; set extruder temp for bed leveling
M140 S60 ; set bed temp
M109 R170 ; wait for bed leveling temp
M190 S60 ; wait for bed temp
M204 T1250 ; set travel acceleration
G28 ; home all without mesh bed level
G29 ; mesh bed leveling 
M204 T2500 ; restore travel acceleration
M104 S215 ; set extruder temp
G92 E0
G1 Y-2 X179 F2400
G1 Z3 F720
M109 S215 ; wait for extruder temp

; intro line
G1 X170 F1000
G1 Z0.2 F720
G1 X110 E8 F900
G1 X40 E10 F700
G92 E0

M221 S95 ; set flow
G21 ; set units to millimeters
G90 ; use absolute coordinates
M83 ; use relative distances for extrusion
M900 K0.2 ; Filament gcode LA 1.5
; ; Filament gcode LA 1.0
M107
;LAYER_CHANGE
;Z:0.2
;HEIGHT:0.2
;BEFORE_LAYER_CHANGE
G92 E0.0
;0.2


G1 E-3.2 F4200
G1 Z.2 F720
;AFTER_LAYER_CHANGE
;0.2
G1 Z.4
G1 X54.077 Y61.507 F9000
G1 Z.2 F720
G1 E3.2 F2400
M204 P800
;TYPE:Skirt/Brim
;WIDTH:0.42
G1 F1200
G1 X55.403 Y60.561 E.05109
G1 X56.512 Y60.056 E.03819
G1 X57.689 Y59.742 E.03819
G1 X58.902 Y59.625 E.03819
G1 X121.098 Y59.625 E1.95013
G1 X122.715 Y59.827 E.05109
G1 X123.873 Y60.207 E.0382
G1 X124.952 Y60.772 E.03819
G1 X126.067 Y61.641 E.04433
G1 X126.88 Y62.548 E.0382
G1 X127.714 Y63.948 E.05109
G1 X128.125 Y65.094 E.03819
G1 X128.358 Y66.489 E.04433
G1 X128.358 Y113.511 E1.47435
G1 X128.125 Y114.906 E.04433
M73 P1 R35
G1 X127.533 Y116.424 E.05109
G1 X126.76 Y117.607 E.04433
G1 X125.923 Y118.493 E.0382
G1 X124.597 Y119.439 E.05109
G1 X123.488 Y119.944 E.03819
G1 X122.311 Y120.258 E.03819
G1 X121.098 Y120.375 E.03819
G1 X59 Y120.377 E1.94705
G1 X57.285 Y120.173 E.05416
G1 X55.948 Y119.714 E.04433
G1 X54.548 Y118.88 E.05109
G1 X53.507 Y117.923 E.04433
G1 X52.772 Y116.952 E.03819
G1 X52.056 Y115.488 E.05109
G1 X51.742 Y114.311 E.03819
G1 X51.625 Y113.098 E.03819
G1 X51.623 Y67 E1.44538
G1 X51.827 Y65.285 E.05416
G1 X52.286 Y63.948 E.04433
G1 X53.12 Y62.548 E.05109
G1 X54.037 Y61.552 E.04245
M204 P1000
; printing object DSMR Reader Top v11.stl id:0 copy 0
G1 E-2.24 F4200
;WIPE_START
G1 F7200
G1 X55.369 Y60.586 E-.912
;WIPE_END
G1 E-.048 F4200
G1 Z.4 F720
G1 X55.677 Y64.414 F9000
G1 Z.2 F720
G1 E3.2 F2400
M204 P800
;TYPE:Perimeter
;WIDTH:0.419999
G1 F1200
G1 X56.148 Y63.902 E.02181
G1 X56.697 Y63.475 E.02181
G1 X57.205 Y63.2 E.0181
G1 X57.737 Y62.997 E.01787
G1 X58.262 Y62.869 E.01694
G1 X59.016 Y62.787 E.02379
G1 X121.009 Y62.789 E1.94373
G1 X121.693 Y62.847 E.02152
G1 X122.367 Y63.017 E.02182
G1 X123.004 Y63.297 E.02181
G1 X123.586 Y63.677 E.0218
G1 X124.098 Y64.148 E.02181
G1 X124.525 Y64.697 E.02181
G1 X124.856 Y65.309 E.02181
G1 X125.045 Y65.858 E.01822
G1 X125.153 Y66.394 E.01715
G1 X125.213 Y67.016 E.01959
G1 X125.213 Y112.972 E1.44091
G1 X125.153 Y113.693 E.02268
G1 X124.983 Y114.367 E.0218
G1 X124.703 Y115.004 E.02181
G1 X124.323 Y115.586 E.0218
G1 X123.852 Y116.098 E.02181
G1 X123.303 Y116.525 E.02181
G1 X122.691 Y116.856 E.02181
G1 X122.034 Y117.082 E.02181
G1 X121.417 Y117.185 E.0196
G1 X120.984 Y117.213 E.01362
G1 X59.028 Y117.213 E1.94258
G1 X58.307 Y117.153 E.02268
M73 P1 R34
G1 X57.633 Y116.983 E.0218
G1 X56.996 Y116.703 E.02181
G1 X56.414 Y116.323 E.0218
G1 X55.902 Y115.852 E.02181
G1 X55.475 Y115.303 E.02181
G1 X55.144 Y114.691 E.02181
G1 X54.918 Y114.034 E.02181
G1 X54.829 Y113.5 E.01697
G1 X54.787 Y112.984 E.01623
G1 X54.787 Y67.028 E1.44091
G1 X54.847 Y66.307 E.02268
G1 X55.017 Y65.633 E.0218
G1 X55.297 Y64.996 E.02181
G1 X55.644 Y64.464 E.01992
M204 P1000
G1 X54.964 Y64.816 F9000
M204 P800
;TYPE:External perimeter
G1 F1200
G1 X55.378 Y64.181 E.02376
G1 X55.892 Y63.624 E.02377
G1 X56.49 Y63.158 E.02376
G1 X57.157 Y62.797 E.02376
G1 X57.873 Y62.551 E.02376
G1 X58.52 Y62.443 E.02057
G1 X59.008 Y62.41 E.01534
G1 X121.025 Y62.412 E1.94447
G1 X121.755 Y62.473 E.02299
M73 P2 R34
G1 X122.49 Y62.659 E.02377
G1 X123.184 Y62.964 E.02377
G1 X123.819 Y63.378 E.02376
G1 X124.376 Y63.892 E.02377
G1 X124.842 Y64.49 E.02376
G1 X125.203 Y65.157 E.02376
G1 X125.402 Y65.736 E.0192
G1 X125.525 Y66.332 E.0191
G1 X125.59 Y67.008 E.02129
G1 X125.59 Y112.988 E1.44164
G1 X125.527 Y113.755 E.02415
G1 X125.341 Y114.49 E.02376
G1 X125.036 Y115.184 E.02377
G1 X124.622 Y115.819 E.02376
G1 X124.108 Y116.376 E.02376
G1 X123.51 Y116.842 E.02376
G1 X122.843 Y117.203 E.02376
G1 X122.127 Y117.449 E.02377
G1 X121.479 Y117.557 E.02058
G1 X120.992 Y117.59 E.01533
G1 X59.012 Y117.59 E1.94331
G1 X58.245 Y117.527 E.02415
G1 X57.51 Y117.341 E.02376
G1 X56.816 Y117.036 E.02377
G1 X56.181 Y116.622 E.02376
G1 X55.624 Y116.108 E.02376
G1 X55.158 Y115.51 E.02376
G1 X54.797 Y114.843 E.02376
G1 X54.551 Y114.127 E.02376
G1 X54.457 Y113.562 E.01795
G1 X54.41 Y112.992 E.01794
G1 X54.41 Y67.012 E1.44164
G1 X54.473 Y66.245 E.02415
G1 X54.659 Y65.51 E.02376
G1 X54.94 Y64.871 E.02188
M204 P1000
G1 X55.364 Y64.805 F9000
G1 E-2.24 F4200
;WIPE_START
G1 F7200
G1 X55.378 Y64.181 E-.45284
G1 X55.892 Y63.624 E-.42003
G1 X55.948 Y63.58 E-.03913
;WIPE_END
G1 E-.048 F4200
G1 Z.4 F720
G1 X60.33 Y65.198 F9000
G1 Z.2 F720
G1 E3.2 F2400
M204 P800
;TYPE:Perimeter
G1 F1200
G1 X60.796 Y65.24 E.01467
G1 X61.357 Y65.4 E.01831
G1 X62.043 Y65.773 E.02446
G1 X62.601 Y66.295 E.02398
G1 X63.003 Y66.918 E.02326
G1 X63.238 Y67.599 E.02256
G1 X63.304 Y68.385 E.02475
G1 X63.184 Y69.114 E.02316
G1 X62.891 Y69.793 E.02319
G1 X62.428 Y70.398 E.02389
G1 X61.82 Y70.874 E.02419
G1 X61.149 Y71.174 E.02306
G1 X60.421 Y71.304 E.02318
G1 X59.688 Y71.256 E.02304
G1 X58.959 Y71.023 E.02399
G1 X58.31 Y70.615 E.02404
G1 X57.798 Y70.079 E.02324
G1 X57.433 Y69.441 E.02304
G1 X57.226 Y68.704 E.02399
G1 X57.206 Y67.951 E.02363
G1 X57.328 Y67.395 E.01783
G1 X57.426 Y67.076 E.01048
G1 X57.711 Y66.545 E.01889
G1 X58.211 Y65.97 E.0239
G1 X58.672 Y65.644 E.01769
G1 X58.941 Y65.486 E.00978
G1 X59.511 Y65.282 E.01898
G1 X60.27 Y65.192 E.02396
M204 P1000
G1 X60.693 Y65.603 F9000
M204 P800
;TYPE:External perimeter
G1 F1200
G1 X61.255 Y65.762 E.01831
G1 X61.855 Y66.1 E.0216
G1 X62.337 Y66.564 E.02098
G1 X62.682 Y67.115 E.02039
G1 X62.879 Y67.713 E.01974
G1 X62.928 Y68.409 E.02186
G1 X62.814 Y69.044 E.02023
G1 X62.548 Y69.635 E.02033
G1 X62.134 Y70.162 E.02101
G1 X61.595 Y70.571 E.02122
G1 X61.003 Y70.826 E.0202
G1 X60.363 Y70.931 E.02033
G1 X59.721 Y70.88 E.02019
G1 X59.082 Y70.666 E.02114
G1 X58.518 Y70.3 E.02107
G1 X58.077 Y69.825 E.02035
G1 X57.765 Y69.261 E.02019
G1 X57.591 Y68.61 E.02114
G1 X57.583 Y67.95 E.02069
G1 X57.741 Y67.297 E.02105
G1 X58.043 Y66.723 E.02034
G1 X58.49 Y66.224 E.02102
G1 X59.027 Y65.861 E.02031
G1 X59.603 Y65.65 E.01925
G1 X60.302 Y65.567 E.02205
G1 X60.633 Y65.598 E.01044
M204 P1000
G1 X60.949 Y65.296 F9000
G1 E-2.24 F4200
;WIPE_START
G1 F7200
G1 X61.255 Y65.762 E-.35636
G1 X61.855 Y66.1 E-.38176
G1 X62.081 Y66.318 E-.17389
;WIPE_END
G1 E-.048 F4200
G1 Z.4 F720
G1 X60.33 Y108.698 F9000
G1 Z.2 F720
G1 E3.2 F2400
M204 P800
;TYPE:Perimeter
G1 F1200
G1 X60.795 Y108.741 E.01465
G1 X61.357 Y108.9 E.01831
G1 X62.042 Y109.273 E.02446
G1 X62.576 Y109.77 E.02287
G1 X63.003 Y110.418 E.02434
G1 X63.238 Y111.099 E.02257
G1 X63.305 Y111.875 E.02442
G1 X63.186 Y112.607 E.02328
G1 X62.881 Y113.308 E.02396
G1 X62.429 Y113.897 E.02327
G1 X61.828 Y114.37 E.02397
G1 X61.154 Y114.672 E.02318
G1 X60.429 Y114.803 E.02308
G1 X59.667 Y114.753 E.02397
G1 X58.986 Y114.53 E.02245
G1 X58.482 Y114.23 E.01838
G1 X58.208 Y114.028 E.01067
G1 X57.803 Y113.585 E.01882
G1 X57.484 Y113.032 E.02002
G1 X57.337 Y112.646 E.01296
G1 X57.214 Y112.142 E.01627
G1 X57.206 Y111.442 E.02193
G1 X57.369 Y110.723 E.02312
G1 X57.713 Y110.041 E.02394
G1 X58.212 Y109.469 E.0238
G1 X58.818 Y109.047 E.02317
G1 X59.511 Y108.783 E.02325
G1 X60.27 Y108.692 E.02398
M204 P1000
G1 X60.301 Y109.067 F9000
M204 P800
;TYPE:External perimeter
G1 F1200
G1 X60.693 Y109.103 E.01232
G1 X61.255 Y109.263 E.01831
G1 X61.855 Y109.6 E.0216
G1 X62.312 Y110.039 E.01987
G1 X62.682 Y110.616 E.02147
G1 X62.878 Y111.214 E.01974
G1 X62.929 Y111.899 E.02156
G1 X62.815 Y112.538 E.02034
G1 X62.539 Y113.15 E.02107
G1 X62.136 Y113.66 E.02038
G1 X61.602 Y114.068 E.02106
G1 X61.007 Y114.325 E.02031
G1 X60.371 Y114.431 E.02023
G1 X59.7 Y114.377 E.02111
G1 X59.113 Y114.175 E.01947
G1 X58.521 Y113.804 E.02189
G1 X58.081 Y113.331 E.02025
G1 X57.816 Y112.852 E.01716
G1 X57.703 Y112.555 E.00996
G1 X57.585 Y112.077 E.01545
G1 X57.583 Y111.443 E.01987
G1 X57.735 Y110.815 E.02027
G1 X58.046 Y110.219 E.02107
G1 X58.49 Y109.724 E.02085
G1 X59.027 Y109.361 E.0203
G1 X59.638 Y109.138 E.0204
G1 X60.242 Y109.073 E.01905
M204 P1000
G1 X60.493 Y108.724 F9000
G1 E-2.24 F4200
;WIPE_START
G1 F7200
G1 X60.693 Y109.103 E-.25041
G1 X61.255 Y109.263 E-.32362
G1 X61.786 Y109.561 E-.33797
;WIPE_END
G1 E-.048 F4200
G1 Z.4 F720
G1 X119.826 Y108.697 F9000
G1 Z.2 F720
G1 E3.2 F2400
M204 P800
;TYPE:Perimeter
G1 F1200
G1 X120.283 Y108.738 E.01437
G1 X120.859 Y108.9 E.01878
G1 X121.533 Y109.265 E.02402
G1 X122.086 Y109.776 E.02362
G1 X122.503 Y110.417 E.02397
G1 X122.738 Y111.099 E.02262
G1 X122.806 Y111.874 E.02441
G1 X122.686 Y112.607 E.02327
G1 X122.382 Y113.308 E.02397
G1 X122.031 Y113.771 E.01822
G1 X121.831 Y113.991 E.0093
G1 X121.333 Y114.367 E.01958
G1 X120.684 Y114.66 E.02233
G1 X119.929 Y114.803 E.0241
G1 X119.172 Y114.753 E.02379
G1 X118.443 Y114.515 E.02404
G1 X117.817 Y114.12 E.0232
G1 X117.295 Y113.574 E.02369
G1 X116.919 Y112.906 E.02406
G1 X116.723 Y112.194 E.02314
G1 X116.706 Y111.457 E.02312
G1 X116.873 Y110.712 E.02394
G1 X117.207 Y110.051 E.02321
G1 X117.707 Y109.474 E.02394
G1 X118.314 Y109.05 E.02323
G1 X119.027 Y108.778 E.02393
G1 X119.766 Y108.692 E.02334
M204 P1000
G1 X119.798 Y109.067 F9000
M204 P800
;TYPE:External perimeter
G1 F1200
G1 X120.181 Y109.101 E.01204
G1 X120.757 Y109.263 E.01878
G1 X121.346 Y109.592 E.02116
G1 X121.824 Y110.047 E.02067
G1 X122.182 Y110.615 E.02105
G1 X122.379 Y111.214 E.01976
G1 X122.429 Y111.899 E.02155
G1 X122.316 Y112.538 E.02034
G1 X122.039 Y113.15 E.02107
G1 X121.638 Y113.658 E.02029
G1 X121.106 Y114.066 E.02102
G1 X120.537 Y114.313 E.01944
G1 X119.87 Y114.431 E.02124
G1 X119.205 Y114.378 E.02092
G1 X118.568 Y114.159 E.02109
G1 X118.025 Y113.806 E.02031
G1 X117.573 Y113.32 E.02082
G1 X117.251 Y112.729 E.02111
G1 X117.089 Y112.103 E.02027
G1 X117.083 Y111.456 E.02026
G1 X117.239 Y110.803 E.02108
G1 X117.539 Y110.229 E.0203
G1 X117.986 Y109.727 E.02107
G1 X118.523 Y109.364 E.02031
G1 X119.153 Y109.133 E.02106
G1 X119.738 Y109.073 E.01844
M204 P1000
G1 X119.984 Y108.731 F9000
G1 E-2.24 F4200
;WIPE_START
G1 F7200
G1 X120.181 Y109.101 E-.24557
G1 X120.757 Y109.263 E-.33184
G1 X121.284 Y109.558 E-.33459
;WIPE_END
G1 E-.048 F4200
G1 Z.4 F720
G1 X119.83 Y71.299 F9000
G1 Z.2 F720
G1 E3.2 F2400
M204 P800
;TYPE:Perimeter
G1 F1200
G1 X119.169 Y71.253 E.02078
G1 X118.443 Y71.015 E.02396
G1 X117.817 Y70.62 E.02319
G1 X117.291 Y70.068 E.02391
G1 X116.926 Y69.424 E.02322
G1 X116.723 Y68.688 E.02393
G1 X116.707 Y67.936 E.02358
G1 X116.872 Y67.215 E.0232
G1 X117.202 Y66.558 E.02305
G1 X117.702 Y65.978 E.02399
G1 X118.331 Y65.54 E.02404
G1 X119.024 Y65.278 E.02323
G1 X119.754 Y65.192 E.02305
G1 X120.304 Y65.242 E.0173
G1 X120.88 Y65.407 E.0188
G1 X121.528 Y65.761 E.02316
G1 X122.002 Y66.195 E.02015
G1 X122.177 Y66.387 E.00814
G1 X122.494 Y66.899 E.01889
G1 X122.685 Y67.438 E.01792
G1 X122.769 Y67.759 E.0104
G1 X122.806 Y68.378 E.01943
G1 X122.686 Y69.107 E.02316
G1 X122.382 Y69.808 E.02396
G1 X121.931 Y70.394 E.02318
G1 X121.333 Y70.867 E.02391
G1 X120.657 Y71.171 E.02323
G1 X119.89 Y71.303 E.02441
M204 P1000
G1 X119.849 Y70.932 F9000
M204 P800
;TYPE:External perimeter
G1 F1200
G1 X119.204 Y70.877 E.0203
G1 X118.568 Y70.659 E.02107
G1 X118.025 Y70.306 E.02031
G1 X117.57 Y69.814 E.02102
G1 X117.258 Y69.246 E.02033
G1 X117.089 Y68.596 E.02104
G1 X117.085 Y67.937 E.02067
G1 X117.237 Y67.307 E.02033
G1 X117.535 Y66.736 E.0202
G1 X117.982 Y66.231 E.02114
G1 X118.539 Y65.855 E.02107
G1 X119.149 Y65.634 E.02035
G1 X119.79 Y65.567 E.0202
G1 X120.2 Y65.605 E.01289
G1 X120.776 Y65.77 E.0188
G1 X121.34 Y66.088 E.0203
G1 X121.74 Y66.467 E.01727
G1 X122.011 Y66.835 E.01434
G1 X122.193 Y67.14 E.01113
G1 X122.384 Y67.735 E.01959
G1 X122.429 Y68.4 E.0209
G1 X122.316 Y69.037 E.0203
G1 X122.039 Y69.65 E.02107
G1 X121.638 Y70.158 E.0203
G1 X121.106 Y70.566 E.02102
G1 X120.51 Y70.824 E.02034
G1 X119.908 Y70.922 E.01914
M204 P1000
G1 X119.662 Y71.285 F9000
G1 E-2.24 F4200
;WIPE_START
G1 F7200
G1 X119.204 Y70.877 E-.39104
G1 X118.568 Y70.659 E-.37234
M73 P3 R34
G1 X118.343 Y70.513 E-.14862
;WIPE_END
G1 E-.048 F4200
G1 Z.4 F720
G1 X124.952 Y65.937 F9000
G1 Z.2 F720
G1 E3.2 F2400
M204 P800
;TYPE:Solid infill
;WIDTH:0.420566
G1 F1200
G1 X122.321 Y63.306 E.11686
G1 X121.604 Y63.123 E.02324
G1 X124.865 Y66.384 E.14482
G1 X124.917 Y66.693 E.00984
G1 X124.928 Y66.982 E.00906
G1 X121.02 Y63.073 E.17355
G1 X120.484 Y63.071 E.01683
G1 X124.93 Y67.517 E.19743
G1 X124.93 Y68.051 E.01677
G1 X119.95 Y63.071 E.22115
G1 X119.416 Y63.071 E.01677
G1 X124.93 Y68.585 E.24487
G1 X124.93 Y69.12 E.01677
G1 X122.856 Y67.045 E.09212
G1 X122.738 Y66.755 E.00983
G1 X122.414 Y66.233 E.01929
G1 X122.289 Y66.078 E.00625
G1 X121.715 Y65.544 E.02463
G1 X121.07 Y65.176 E.02331
G1 X120.951 Y65.14 E.00392
G1 X118.882 Y63.071 E.09186
G1 X118.348 Y63.071 E.01677
G1 X120.217 Y64.94 E.083
G1 X119.659 Y64.917 E.01752
G1 X117.814 Y63.071 E.08196
G1 X117.28 Y63.071 E.01677
G1 X119.174 Y64.965 E.0841
G1 X119.062 Y64.976 E.00353
G1 X118.754 Y65.08 E.0102
G1 X116.746 Y63.071 E.08919
G1 X116.212 Y63.071 E.01677
G1 X118.355 Y65.214 E.09517
G1 X118.016 Y65.41 E.01228
G1 X115.677 Y63.071 E.10385
G1 X115.143 Y63.071 E.01677
G1 X117.695 Y65.622 E.11329
G1 X117.496 Y65.785 E.00806
G1 X117.414 Y65.876 E.00384
G1 X114.609 Y63.071 E.12454
G1 X114.075 Y63.071 E.01677
G1 X117.161 Y66.157 E.13703
G1 X117.067 Y66.261 E.0044
G1 X116.933 Y66.463 E.00762
G1 X113.541 Y63.071 E.15062
G1 X113.007 Y63.071 E.01677
G1 X116.747 Y66.811 E.1661
G1 X116.669 Y66.959 E.00525
G1 X116.588 Y67.186 E.00757
G1 X112.473 Y63.071 E.18273
G1 X111.939 Y63.071 E.01677
G1 X116.484 Y67.616 E.20182
G1 X116.43 Y67.837 E.00715
G1 X116.428 Y68.094 E.00807
G1 X111.405 Y63.071 E.22305
G1 X110.871 Y63.071 E.01677
G1 X116.646 Y68.847 E.25649
M204 P1000
G1 E-2.24 F4200
;WIPE_START
G1 F7200
G1 X115.483 Y67.683 E-.912
;WIPE_END
G1 E-.048 F4200
G1 Z.4 F720
G1 X122.846 Y67.569 F9000
G1 Z.2 F720
G1 E3.2 F2400
M204 P800
G1 F1200
G1 X124.93 Y69.654 E.09257
G1 X124.93 Y70.188 E.01677
G1 X123.086 Y68.343 E.0819
G1 X123.09 Y68.417 E.0023
G1 X123.023 Y68.814 E.01267
G1 X124.93 Y70.722 E.08471
G1 X124.93 Y71.256 E.01677
G1 X122.933 Y69.259 E.08868
G1 X122.774 Y69.633 E.01278
G1 X124.93 Y71.79 E.09577
G1 X124.93 Y72.324 E.01677
G1 X122.598 Y69.992 E.10355
G1 X122.371 Y70.299 E.01199
G1 X124.93 Y72.858 E.11364
G1 X124.93 Y73.392 E.01677
G1 X122.131 Y70.593 E.12432
G1 X121.841 Y70.837 E.0119
G1 X124.93 Y73.926 E.13716
G1 X124.93 Y74.46 E.01677
G1 X121.537 Y71.067 E.15069
G1 X121.328 Y71.194 E.00768
G1 X121.189 Y71.253 E.00474
G1 X124.93 Y74.994 E.16614
G1 X124.93 Y75.528 E.01677
G1 X120.814 Y71.412 E.18281
G1 X120.572 Y71.488 E.00795
G1 X120.383 Y71.515 E.006
G1 X124.93 Y76.062 E.20194
G1 X124.93 Y76.597 E.01677
G1 X119.917 Y71.583 E.22265
G1 X119.84 Y71.594 E.00243
G1 X119.349 Y71.55 E.01547
G1 X124.93 Y77.131 E.24784
G1 X124.93 Y77.665 E.01677
G1 X118.649 Y71.383 E.27895
G1 X118.344 Y71.28 E.01011
