; generated by PrusaSlicer 2.5.0+MacOS-x64 on 2022-10-05 at 08:13:43 UTC


;
;

;
;
; 

; external perimeters extrusion width = 0.45mm
; perimeters extrusion width = 0.45mm
; infill extrusion width = 0.45mm
; solid infill extrusion width = 0.45mm
; top infill extrusion width = 0.40mm
; first layer extrusion width = 0.42mm

M73 P0 R82
M201 X2500 Y2500 Z400 E5000 ; sets maximum accelerations, mm/sec^2
M203 X180 Y180 Z12 E80 ; sets maximum feedrates, mm / sec
M204 P1250 R1250 T2500 ; sets acceleration (P, T) and retract acceleration (R), mm/sec^2
M205 X8.00 Y8.00 Z2.00 E10.00 ; sets the jerk limits, mm/sec
M205 S0 T0 ; sets the minimum extruding and travel feed rate, mm/sec
M107
;TYPE:Custom
M862.3 P "MINI" ; printer model check
G90 ; use absolute coordinates
M83 ; extruder relative mode
M104 S170 ; set extruder temp for bed leveling
M140 S60 ; set bed temp
M109 R170 ; wait for bed leveling temp
M190 S60 ; wait for bed temp
M204 T1250 ; set travel acceleration
G28 ; home all without mesh bed level
G29 ; mesh bed leveling 
M204 T2500 ; restore travel acceleration
M104 S215 ; set extruder temp
G92 E0
G1 Y-2 X179 F2400
G1 Z3 F720
M109 S215 ; wait for extruder temp

; intro line
G1 X170 F1000
G1 Z0.2 F720
G1 X110 E8 F900
G1 X40 E10 F700
G92 E0

M221 S95 ; set flow
G21 ; set units to millimeters
G90 ; use absolute coordinates
M83 ; use relative distances for extrusion
M900 K0.2 ; Filament gcode LA 1.5
; ; Filament gcode LA 1.0
M107
;LAYER_CHANGE
;Z:0.2
;HEIGHT:0.2
;BEFORE_LAYER_CHANGE
G92 E0.0
;0.2


G1 E-3.2 F4200
G1 Z.2 F720
;AFTER_LAYER_CHANGE
;0.2
G1 Z.4
G1 X54.077 Y61.507 F9000
G1 Z.2 F720
G1 E3.2 F2400
M204 P800
;TYPE:Skirt/Brim
;WIDTH:0.42
G1 F1200
G1 X55.048 Y60.772 E.0382
G1 X56.127 Y60.207 E.03819
G1 X57.285 Y59.827 E.03819
G1 X58.902 Y59.625 E.05109
G1 X121.098 Y59.625 E1.95013
G1 X122.715 Y59.827 E.05109
G1 X123.873 Y60.207 E.03819
G1 X124.952 Y60.772 E.03819
G1 X126.067 Y61.641 E.04433
G1 X126.88 Y62.548 E.0382
G1 X127.714 Y63.948 E.05109
G1 X128.173 Y65.285 E.04433
G1 X128.358 Y66.489 E.0382
G1 X128.358 Y113.511 E1.47435
G1 X128.125 Y114.906 E.04433
G1 X127.533 Y116.424 E.05109
G1 X126.76 Y117.607 E.04433
G1 X125.923 Y118.493 E.03819
G1 X124.597 Y119.439 E.05109
G1 X123.488 Y119.944 E.03819
G1 X122.311 Y120.258 E.03819
G1 X121.098 Y120.375 E.03819
G1 X59 Y120.377 E1.94705
G1 X57.285 Y120.173 E.05416
G1 X55.948 Y119.714 E.04433
G1 X54.548 Y118.88 E.05109
G1 X53.507 Y117.923 E.04433
G1 X52.772 Y116.952 E.03819
G1 X52.056 Y115.488 E.05109
G1 X51.742 Y114.311 E.03819
G1 X51.625 Y113.098 E.03819
G1 X51.623 Y67 E1.44538
G1 X51.827 Y65.285 E.05416
G1 X52.286 Y63.948 E.04433
G1 X53.12 Y62.548 E.0511
G1 X54.037 Y61.552 E.04245
M204 P1000
; printing object DMSR Reader Case v11.stl id:0 copy 0
G1 E-2.24 F4200
;WIPE_START
G1 F7200
G1 X55.048 Y60.772 E-.70782
G1 X55.375 Y60.601 E-.20418
;WIPE_END
G1 E-.048 F4200
G1 Z.4 F720
G1 X56.148 Y63.902 F9000
G1 Z.2 F720
G1 E3.2 F2400
M204 P800
;TYPE:Perimeter
;WIDTH:0.419999
G1 F1200
G1 X56.697 Y63.475 E.02181
G1 X57.309 Y63.144 E.0218
G1 X57.857 Y62.955 E.01819
G1 X58.437 Y62.84 E.01853
G1 X59.016 Y62.787 E.01824
G1 X120.974 Y62.787 E1.94264
G1 X121.693 Y62.847 E.02263
G1 X122.367 Y63.017 E.0218
G1 X123.004 Y63.297 E.02181
G1 X123.586 Y63.677 E.0218
G1 X124.098 Y64.148 E.02181
G1 X124.525 Y64.697 E.02181
G1 X124.856 Y65.309 E.02181
G1 X125.082 Y65.966 E.02181
G1 X125.185 Y66.583 E.0196
G1 X125.213 Y67.016 E.01362
G1 X125.213 Y112.972 E1.44091
G1 X125.153 Y113.693 E.02268
G1 X124.983 Y114.367 E.0218
G1 X124.703 Y115.004 E.02181
G1 X124.323 Y115.586 E.0218
G1 X123.852 Y116.098 E.0218
G1 X123.303 Y116.525 E.02181
G1 X122.691 Y116.856 E.0218
G1 X122.142 Y117.045 E.01822
G1 X121.622 Y117.151 E.01664
G1 X120.984 Y117.213 E.0201
G1 X59.028 Y117.213 E1.94258
G1 X58.307 Y117.153 E.02268
G1 X57.633 Y116.983 E.0218
G1 X56.996 Y116.703 E.02181
G1 X56.414 Y116.323 E.0218
G1 X55.902 Y115.852 E.02181
G1 X55.475 Y115.303 E.02181
G1 X55.144 Y114.691 E.02181
G1 X54.918 Y114.034 E.02181
G1 X54.815 Y113.418 E.01959
G1 X54.787 Y112.984 E.01363
G1 X54.787 Y67.028 E1.44091
G1 X54.847 Y66.307 E.02268
G1 X55.017 Y65.633 E.0218
G1 X55.297 Y64.996 E.02181
G1 X55.677 Y64.414 E.0218
G1 X56.107 Y63.946 E.01992
M204 P1000
G1 X54.964 Y64.816 F9000
M204 P800
;TYPE:External perimeter
G1 F1200
G1 X55.379 Y64.181 E.02376
G1 X55.892 Y63.624 E.02376
G1 X56.49 Y63.158 E.02377
G1 X57.157 Y62.797 E.02376
G1 X57.873 Y62.551 E.02376
G1 X58.375 Y62.468 E.01594
G1 X59.008 Y62.41 E.01995
G1 X120.99 Y62.41 E1.94337
G1 X121.755 Y62.473 E.02409
M73 P0 R81
G1 X122.49 Y62.659 E.02376
G1 X123.184 Y62.964 E.02377
G1 X123.819 Y63.378 E.02376
G1 X124.376 Y63.892 E.02376
G1 X124.842 Y64.49 E.02376
G1 X125.203 Y65.157 E.02376
G1 X125.449 Y65.873 E.02376
G1 X125.557 Y66.521 E.02058
G1 X125.59 Y67.008 E.01533
G1 X125.59 Y112.988 E1.44164
G1 X125.527 Y113.755 E.02415
G1 X125.341 Y114.49 E.02376
G1 X125.036 Y115.184 E.02377
G1 X124.621 Y115.819 E.02376
G1 X124.108 Y116.376 E.02376
G1 X123.51 Y116.842 E.02377
G1 X122.843 Y117.203 E.02376
G1 X122.264 Y117.401 E.0192
G1 X121.684 Y117.523 E.01859
G1 X120.992 Y117.59 E.02181
G1 X59.012 Y117.59 E1.94331
G1 X58.245 Y117.527 E.02415
M73 P1 R81
G1 X57.51 Y117.341 E.02376
G1 X56.816 Y117.036 E.02377
G1 X56.181 Y116.622 E.02376
G1 X55.624 Y116.108 E.02376
G1 X55.158 Y115.51 E.02376
G1 X54.797 Y114.843 E.02376
G1 X54.551 Y114.127 E.02376
G1 X54.443 Y113.48 E.02057
G1 X54.41 Y112.992 E.01534
G1 X54.41 Y67.012 E1.44164
G1 X54.473 Y66.245 E.02415
G1 X54.659 Y65.51 E.02376
G1 X54.94 Y64.871 E.02188
M204 P1000
G1 X55.364 Y64.805 F9000
G1 E-2.24 F4200
;WIPE_START
G1 F7200
G1 X55.379 Y64.181 E-.45284
G1 X55.892 Y63.624 E-.42003
G1 X55.948 Y63.58 E-.03913
;WIPE_END
G1 E-.048 F4200
G1 Z.4 F720
G1 X57.56 Y66.825 F9000
G1 Z.2 F720
G1 E3.2 F2400
M204 P800
;TYPE:Perimeter
G1 F1200
G1 X57.609 Y66.717 E.00371
G1 X57.968 Y66.222 E.0192
G1 X58.427 Y65.817 E.01918
G1 X58.675 Y65.634 E.00964
G1 X59.229 Y65.373 E.01922
G1 X59.988 Y65.208 E.02435
G1 X60.743 Y65.237 E.02369
G1 X61.487 Y65.459 E.02433
G1 X62.135 Y65.848 E.0237
G1 X62.661 Y66.379 E.02346
G1 X63.057 Y67.051 E.02444
G1 X63.27 Y67.802 E.02449
G1 X63.288 Y68.557 E.02367
G1 X63.111 Y69.314 E.02437
G1 X62.744 Y70.008 E.02462
G1 X62.399 Y70.397 E.01631
G1 X62.134 Y70.652 E.01154
G1 X61.616 Y70.981 E.01924
G1 X60.882 Y71.237 E.02437
G1 X60.13 Y71.301 E.02364
G1 X59.363 Y71.171 E.02439
G1 X58.675 Y70.866 E.02362
G1 X58.065 Y70.381 E.02442
G1 X57.609 Y69.783 E.02359
G1 X57.316 Y69.092 E.02352
G1 X57.198 Y68.323 E.02439
G1 X57.273 Y67.573 E.02364
G1 X57.535 Y66.88 E.02323
M204 P1000
G1 X57.892 Y66.981 F9000
M204 P800
;TYPE:External perimeter
G1 F1200
G1 X58.274 Y66.443 E.02069
G1 X58.668 Y66.107 E.01625
G1 X58.836 Y65.975 E.00667
G1 X59.39 Y65.714 E.01922
G1 X60.06 Y65.578 E.02142
G1 X60.72 Y65.613 E.02072
G1 X61.371 Y65.817 E.0214
G1 X61.933 Y66.167 E.02074
G1 X62.388 Y66.638 E.02056
G1 X62.728 Y67.235 E.02153
G1 X62.905 Y67.896 E.02146
G1 X62.911 Y68.557 E.02072
G1 X62.746 Y69.22 E.02142
G1 X62.415 Y69.824 E.02159
G1 X61.932 Y70.334 E.02203
G1 X61.414 Y70.662 E.01924
G1 X60.766 Y70.878 E.02141
G1 X60.107 Y70.925 E.02071
G1 X59.435 Y70.801 E.02143
G1 X58.836 Y70.525 E.02069
G1 X58.306 Y70.091 E.02146
G1 X57.915 Y69.561 E.02066
G1 X57.666 Y68.953 E.02061
G1 X57.572 Y68.274 E.02147
G1 X57.647 Y67.62 E.02066
G1 X57.87 Y67.037 E.01957
M204 P1000
G1 X57.681 Y66.64 F9000
G1 E-2.24 F4200
;WIPE_START
G1 F7200
G1 X58.274 Y66.443 E-.39788
G1 X58.668 Y66.107 E-.28718
G1 X58.836 Y65.975 E-.11785
G1 X59.014 Y65.891 E-.10909
;WIPE_END
G1 E-.048 F4200
G1 Z.4 F720
G1 X74.679 Y90.188 F9000
G1 Z.2 F720
G1 E3.2 F2400
M204 P800
;TYPE:Perimeter
;WIDTH:0.424874
G1 F1200
G1 X74.628 Y90.219 E.00189
;WIDTH:0.444381
G1 X74.412 Y90.271 E.00742
G1 X72.967 Y90.271 E.04825
G1 X72.566 Y90.093 E.01462
;WIDTH:0.419999
G1 X72.418 Y89.831 E.00946
G1 X72.403 Y89.648 E.00575
G1 X72.488 Y88.601 E.03293
G1 X72.595 Y87.766 E.02639
G1 X72.74 Y86.937 E.02639
G1 X72.924 Y86.116 E.02639
G1 X73.145 Y85.304 E.02639
G1 X73.405 Y84.503 E.02639
G1 X73.686 Y83.755 E.02506
G1 X74.033 Y82.942 E.02771
G1 X74.323 Y82.347 E.02075
G1 X74.805 Y81.446 E.03202
G1 X75.242 Y80.727 E.02639
G1 X75.712 Y80.029 E.02639
G1 X76.214 Y79.353 E.02639
G1 X76.705 Y78.753 E.02434
G1 X77.309 Y78.076 E.02844
G1 X77.749 Y77.63 E.01963
G1 X78.519 Y76.906 E.03314
G1 X79.163 Y76.364 E.02639
G1 X79.832 Y75.853 E.02639
G1 X80.523 Y75.374 E.02639
G1 X81.237 Y74.927 E.02639
G1 X81.97 Y74.514 E.02639
G1 X82.722 Y74.136 E.02639
G1 X83.491 Y73.793 E.02639
G1 X84.274 Y73.486 E.02639
G1 X85.071 Y73.216 E.02639
G1 X85.88 Y72.984 E.02639
G1 X86.699 Y72.789 E.02639
G1 X87.526 Y72.632 E.02639
G1 X88.359 Y72.515 E.02639
G1 X89.197 Y72.436 E.02639
G1 X90.038 Y72.396 E.02639
G1 X90.88 Y72.395 E.02639
G1 X91.72 Y72.434 E.02639
G1 X92.559 Y72.512 E.02639
G1 X93.392 Y72.628 E.02639
G1 X94.219 Y72.783 E.02639
G1 X95.038 Y72.977 E.02639
G1 X95.848 Y73.208 E.02639
G1 X96.645 Y73.477 E.02639
G1 X97.429 Y73.783 E.02639
G1 X98.198 Y74.125 E.02639
G1 X98.951 Y74.502 E.02639
G1 X99.685 Y74.914 E.02639
G1 X100.399 Y75.359 E.02639
G1 X101.091 Y75.838 E.02639
G1 X101.761 Y76.348 E.02639
G1 X102.406 Y76.888 E.02639
G1 X102.956 Y77.395 E.02346
G1 X103.416 Y77.854 E.02036
G1 X104.181 Y78.682 E.03534
G1 X104.714 Y79.333 E.02639
G1 X105.217 Y80.007 E.02639
G1 X105.688 Y80.705 E.02639
G1 X105.988 Y81.196 E.01803
G1 X106.53 Y82.162 E.03474
G1 X106.9 Y82.918 E.02639
G1 X107.233 Y83.691 E.02639
G1 X107.531 Y84.478 E.02639
G1 X107.791 Y85.278 E.02639
G1 X108.014 Y86.09 E.02639
G1 X108.199 Y86.911 E.02639
G1 X108.346 Y87.74 E.02639
G1 X108.453 Y88.575 E.02639
G1 X108.541 Y89.648 E.03376
G1 X108.511 Y89.881 E.00736
G1 X108.367 Y90.103 E.00832
;WIDTH:0.444381
G1 X107.978 Y90.271 E.01417
G1 X106.532 Y90.271 E.04825
G1 X106.11 Y90.07 E.01562
;WIDTH:0.419999
G1 X105.975 Y89.791 E.0097
G1 X105.835 Y88.396 E.04398
G1 X105.667 Y87.383 E.03218
G1 X105.502 Y86.661 E.02324
G1 X105.303 Y85.947 E.02321
G1 X105.07 Y85.245 E.02319
G1 X104.804 Y84.556 E.02316
G1 X104.506 Y83.881 E.02315
G1 X104.177 Y83.221 E.02313
G1 X103.817 Y82.578 E.02311
G1 X103.427 Y81.953 E.0231
G1 X103.007 Y81.347 E.02309
G1 X102.624 Y80.845 E.01981
G1 X102.076 Y80.189 E.02679
G1 X101.567 Y79.642 E.02345
G1 X101.032 Y79.119 E.02346
G1 X100.471 Y78.622 E.02348
G1 X99.887 Y78.153 E.0235
G1 X99.28 Y77.712 E.02351
G1 X98.653 Y77.3 E.02353
G1 X98.005 Y76.92 E.02355
G1 X97.339 Y76.57 E.02358
G1 X96.657 Y76.253 E.0236
G1 X95.959 Y75.969 E.02363
G1 X95.334 Y75.75 E.02076
G1 X94.265 Y75.426 E.03502
G1 X93.777 Y75.25 E.01626
G1 X93.872 Y75.736 E.01552
G1 X93.926 Y76.718 E.03083
G1 X93.928 Y88.685 E.37522
G1 X99.457 Y88.685 E.17338
G1 X99.685 Y88.733 E.0073
G1 X99.885 Y88.88 E.00776
G1 X100.01 Y89.13 E.00879
G1 X100.023 Y91.694 E.08037
G1 X99.978 Y91.915 E.00709
G1 X99.822 Y92.126 E.00822
G1 X99.616 Y92.236 E.00732
G1 X98.682 Y92.259 E.02932
G1 X90.919 Y92.259 E.24338
G1 X90.589 Y91.982 E.01351
G1 X90.59 Y104.169 E.38211
G1 X90.576 Y104.975 E.02527
G1 X90.532 Y105.862 E.02785
G1 X90.426 Y105.985 E.00509
G1 X91.588 Y105.939 E.03645
G1 X92.325 Y105.868 E.02322
G1 X93.061 Y105.761 E.02329
G1 X93.79 Y105.62 E.0233
G1 X94.512 Y105.444 E.0233
G1 X95.224 Y105.233 E.0233
G1 X95.926 Y104.988 E.02329
G1 X96.615 Y104.71 E.0233
G1 X97.29 Y104.4 E.0233
G1 X97.949 Y104.057 E.02329
G1 X98.591 Y103.684 E.0233
G1 X99.215 Y103.28 E.02329
G1 X99.818 Y102.846 E.02329
G1 X100.4 Y102.384 E.0233
G1 X100.959 Y101.895 E.0233
G1 X101.494 Y101.38 E.0233
G1 X102.004 Y100.839 E.02329
G1 X102.488 Y100.275 E.0233
G1 X102.943 Y99.688 E.02329
G1 X103.37 Y99.08 E.02329
G1 X103.768 Y98.452 E.0233
G1 X104.135 Y97.806 E.02329
G1 X104.47 Y97.144 E.0233
G1 X104.774 Y96.465 E.0233
G1 X105.045 Y95.774 E.02329
G1 X105.282 Y95.069 E.0233
G1 X105.485 Y94.355 E.0233
G1 X105.654 Y93.631 E.02329
G1 X105.788 Y92.9 E.0233
G1 X105.886 Y92.164 E.02329
G1 X105.969 Y91.202 E.03026
G1 X106.016 Y91.02 E.00589
G1 X106.11 Y90.874 E.00545
;WIDTH:0.444381
G1 X106.532 Y90.673 E.01562
G1 X107.978 Y90.673 E.04825
G1 X108.367 Y90.841 E.01417
;WIDTH:0.419999
G1 X108.525 Y91.107 E.00969
G1 X108.541 Y91.296 E.00597
G1 X108.456 Y92.343 E.03293
G1 X108.35 Y93.178 E.02639
G1 X108.204 Y94.007 E.02639
G1 X108.021 Y94.829 E.02639
G1 X107.799 Y95.64 E.02639
G1 X107.54 Y96.441 E.02639
G1 X107.243 Y97.229 E.02639
G1 X106.911 Y98.002 E.02639
G1 X106.542 Y98.759 E.02639
G1 X106.173 Y99.437 E.0242
G1 X105.702 Y100.217 E.02857
G1 X105.232 Y100.915 E.02639
G1 X104.731 Y101.591 E.02639
G1 X104.198 Y102.242 E.02639
G1 X103.673 Y102.826 E.02459
G1 X103.121 Y103.389 E.02473
G1 X102.426 Y104.038 E.02984
G1 X101.781 Y104.58 E.02639
G1 X101.113 Y105.091 E.02639
G1 X100.421 Y105.57 E.02639
G1 X99.707 Y106.017 E.02639
G1 X98.974 Y106.43 E.02639
G1 X98.222 Y106.808 E.02639
G1 X97.454 Y107.151 E.02639
G1 X96.67 Y107.458 E.02639
G1 X95.873 Y107.728 E.02639
G1 X95.064 Y107.961 E.02639
G1 X94.245 Y108.155 E.02639
G1 X93.418 Y108.312 E.02639
G1 X92.585 Y108.429 E.02639
G1 X91.747 Y108.508 E.02639
G1 X90.906 Y108.548 E.02639
G1 X90.064 Y108.549 E.02639
G1 X89.224 Y108.51 E.02639
G1 X88.386 Y108.432 E.02639
G1 X87.552 Y108.316 E.02639
G1 X86.725 Y108.161 E.02639
G1 X85.906 Y107.967 E.02639
G1 X85.097 Y107.736 E.02639
G1 X84.299 Y107.467 E.02639
G1 X83.515 Y107.161 E.02639
G1 X82.746 Y106.819 E.02639
G1 X81.993 Y106.442 E.02639
G1 X81.259 Y106.03 E.02639
G1 X80.545 Y105.585 E.02639
G1 X79.853 Y105.106 E.02639
G1 X79.183 Y104.596 E.02639
G1 X78.538 Y104.056 E.02639
G1 X77.919 Y103.486 E.02639
G1 X77.327 Y102.887 E.02639
G1 X76.764 Y102.262 E.02639
G1 X76.23 Y101.612 E.02639
G1 X75.727 Y100.937 E.02639
G1 X75.256 Y100.239 E.02639
G1 X74.945 Y99.73 E.01871
G1 X74.414 Y98.782 E.03406
G1 X74.044 Y98.026 E.02639
G1 X73.711 Y97.253 E.02639
G1 X73.413 Y96.466 E.02639
G1 X73.153 Y95.666 E.02639
G1 X72.93 Y94.854 E.02639
G1 X72.745 Y94.033 E.02639
G1 X72.598 Y93.204 E.02639
G1 X72.491 Y92.37 E.02639
G1 X72.403 Y91.296 E.03376
G1 X72.43 Y91.072 E.00709
G1 X72.566 Y90.851 E.00814
;WIDTH:0.444381
G1 X72.967 Y90.673 E.01462
G1 X74.412 Y90.673 E.04825
G1 X74.628 Y90.725 E.00742
;WIDTH:0.424874
G1 X74.771 Y90.814 E.00535
;WIDTH:0.455637
G1 X74.891 Y91.007 E.00779
;WIDTH:0.491275
G1 X75.011 Y91.199 E.00847
G1 X75.044 Y91.712 E.01914
;WIDTH:0.469351
G1 X75.155 Y92.886 E.04183
;WIDTH:0.419999
G1 X75.285 Y93.604 E.02288
G1 X75.45 Y94.316 E.02289
G1 X75.648 Y95.019 E.02293
G1 X75.88 Y95.714 E.02295
G1 X76.144 Y96.398 E.02298
G1 X76.44 Y97.069 E.02301
G1 X76.769 Y97.726 E.02303
G1 X77.128 Y98.367 E.02305
G1 X77.518 Y98.991 E.02307
G1 X77.937 Y99.597 E.02309
G1 X78.32 Y100.099 E.01981
G1 X78.868 Y100.755 E.02679
G1 X79.377 Y101.302 E.02345
G1 X79.913 Y101.825 E.02346
G1 X80.473 Y102.322 E.02348
G1 X81.057 Y102.791 E.0235
G1 X81.664 Y103.232 E.02351
G1 X82.291 Y103.644 E.02353
G1 X82.939 Y104.025 E.02356
G1 X83.605 Y104.374 E.02358
G1 X84.287 Y104.691 E.0236
G1 X84.986 Y104.975 E.02363
G1 X85.61 Y105.195 E.02076
G1 X86.679 Y105.518 E.03502
G1 X87.167 Y105.694 E.01626
G1 X87.072 Y105.208 E.01552
G1 X87.018 Y104.226 E.03083
G1 X87.016 Y92.259 E.37522
G1 X76.06 Y92.259 E.34354
G1 X75.905 Y92.237 E.00491
;WIDTH:0.44158
G1 X75.567 Y91.993 E.01381
;WIDTH:0.467888
G1 X75.472 Y91.744 E.00943
;WIDTH:0.491275
G1 X75.458 Y91.18 E.02102
G1 X75.476 Y90.826 E.01322
;WIDTH:0.455637
G1 X75.494 Y90.472 E.01217
;WIDTH:0.458007
G1 X75.475 Y90.155 E.01098
;WIDTH:0.496014
G1 X75.456 Y89.837 E.01199
G1 X75.469 Y89.251 E.0221
;WIDTH:0.469351
G1 X75.575 Y88.956 E.0111
;WIDTH:0.422488
G1 X75.905 Y88.707 E.01303
;WIDTH:0.419999
G1 X76.407 Y88.685 E.01575
G1 X87.016 Y88.685 E.33266
G1 X87.017 Y76.749 E.37424
G1 X87.072 Y75.736 E.0318
G1 X87.167 Y75.25 E.01552
G1 X86.679 Y75.426 E.01626
G1 X85.72 Y75.711 E.03136
G1 X85.018 Y75.956 E.02331
G1 X84.329 Y76.234 E.0233
G1 X83.654 Y76.544 E.0233
G1 X82.995 Y76.887 E.02329
G1 X82.353 Y77.261 E.0233
G1 X81.729 Y77.665 E.02329
G1 X81.126 Y78.098 E.0233
G1 X80.544 Y78.56 E.02329
G1 X79.985 Y79.049 E.0233
G1 X79.45 Y79.565 E.0233
G1 X78.94 Y80.105 E.02329
G1 X78.457 Y80.669 E.0233
G1 X78.001 Y81.256 E.02329
